X: 1
T: Nitzanim [Gm]
T: Nitzanim Niru Baaretz
N: Title translates as "Flower buds appear in the land"
O: Israel
M: 2/4
L: 1/8
Z: 2007 John Chambers <jc@trillian.mit.edu>
K: Gm
|: "Gm"Gd df | "Cm"ed/c/ "Gm"dB | "Cm"c2 c2 \
| "E"Gc "F"cd | "Gm"B/A/B- "D7"Bc- |[M:3/4] "G"dB "Am"A2- A2 :|
M: 2/4
|: "Gm"dg g2 | dg g2 | "B"f=e/f/ "C"ge | "Dm"d2 d2 \
| "Gm"Gd df | "Cm"ed/c/ "Gm"d2 | "Gm"B/A/B- "(E)"BB | "F"cB/A/ "Gm"G2 :|
